Newaita-dark/.places-darknight/64/folder-publicshare.svg

<?xml version="1.0" encoding="UTF-8"?>
<svg xmlns="http://www.w3.org/2000/svg" xmlns:xlink="http://www.w3.org/1999/xlink" width="64px" height="64px" viewBox="0 0 64 64" version="1.1">
<defs>
<linearGradient id="linear0" gradientUnits="userSpaceOnUse" x1="254" y1="233.5" x2="254" y2="254.666672" gradientTransform="matrix(0.125012,0,0,0.125012,-0.00000763012,26.877574)">
<stop offset="0" style="stop-color:rgb(0%,0%,0%);stop-opacity:0.27451;"/>
<stop offset="1" style="stop-color:rgb(0%,0%,0%);stop-opacity:0;"/>
</linearGradient>
<radialGradient id="radial0" gradientUnits="userSpaceOnUse" cx="450.908936" cy="189.579361" fx="450.908936" fy="189.579361" r="21.166656" gradientTransform="matrix(0.000000348341,-0.156265,-0.281277,-0.000000203077,108.230425,127.190669)">
<stop offset="0" style="stop-color:rgb(0%,0%,0%);stop-opacity:0.313726;"/>
<stop offset="0.222222" style="stop-color:rgb(0%,0%,0%);stop-opacity:0.27451;"/>
<stop offset="1" style="stop-color:rgb(0%,0%,0%);stop-opacity:0;"/>
</radialGradient>
<radialGradient id="radial1" gradientUnits="userSpaceOnUse" cx="450.908936" cy="189.579361" fx="450.908936" fy="189.579361" r="21.166656" gradientTransform="matrix(-0.000000348341,0.156265,0.281277,0.000000203077,-44.724356,-15.054954)">
<stop offset="0" style="stop-color:rgb(0%,0%,0%);stop-opacity:0.313726;"/>
<stop offset="0.222222" style="stop-color:rgb(0%,0%,0%);stop-opacity:0.27451;"/>
<stop offset="1" style="stop-color:rgb(0%,0%,0%);stop-opacity:0;"/>
</radialGradient>
<radialGradient id="radial2" gradientUnits="userSpaceOnUse" cx="450.908936" cy="189.579361" fx="450.908936" fy="189.579361" r="21.166656" gradientTransform="matrix(-0.000000348341,-0.156265,0.281277,-0.000000203077,-44.724356,127.190669)">
<stop offset="0" style="stop-color:rgb(0%,0%,0%);stop-opacity:0.313726;"/>
<stop offset="0.222222" style="stop-color:rgb(0%,0%,0%);stop-opacity:0.27451;"/>
<stop offset="1" style="stop-color:rgb(0%,0%,0%);stop-opacity:0;"/>
</radialGradient>
<radialGradient id="radial3" gradientUnits="userSpaceOnUse" cx="450.908936" cy="189.579361" fx="450.908936" fy="189.579361" r="21.166656" gradientTransform="matrix(0.000000348341,0.156265,-0.281277,0.000000203077,108.230422,-15.054955)">
<stop offset="0" style="stop-color:rgb(0%,0%,0%);stop-opacity:0.313726;"/>
<stop offset="0.222222" style="stop-color:rgb(0%,0%,0%);stop-opacity:0.27451;"/>
<stop offset="1" style="stop-color:rgb(0%,0%,0%);stop-opacity:0;"/>
</radialGradient>
<linearGradient id="linear1" gradientUnits="userSpaceOnUse" x1="254" y1="-147.5" x2="254" y2="-31.083334" gradientTransform="matrix(0.125012,0,0,0.125012,0.00000249951,26.877563)">
<stop offset="0" style="stop-color:rgb(64.313728%,64.313728%,64.313728%);stop-opacity:0;"/>
<stop offset="1" style="stop-color:rgb(100%,100%,100%);stop-opacity:0.196078;"/>
</linearGradient>
<linearGradient id="linear2" gradientUnits="userSpaceOnUse" x1="254" y1="233.5" x2="254" y2="-105.166656" gradientTransform="matrix(0.125012,0,0,0.125012,-0.00000362479,26.877566)">
<stop offset="0" style="stop-color:rgb(34.509805%,34.509805%,34.509805%);stop-opacity:0;"/>
<stop offset="1" style="stop-color:rgb(98.039216%,98.039216%,98.039216%);stop-opacity:0.196078;"/>
</linearGradient>
</defs>
<g id="surface1">
<path style=" stroke:none;fill-rule:nonzero;fill:url(#linear0);" d="M 7.9375 56.066406 L 55.566406 56.066406 L 55.566406 58.714844 L 7.9375 58.714844 Z M 7.9375 56.066406 "/>
<path style=" stroke:none;fill-rule:nonzero;fill:url(#radial0);" d="M 55.566406 56.066406 L 60.859375 56.066406 L 60.859375 53.421875 L 55.566406 53.421875 Z M 55.566406 56.066406 "/>
<path style=" stroke:none;fill-rule:nonzero;fill:url(#radial1);" d="M 7.9375 56.066406 L 2.644531 56.066406 L 2.644531 58.714844 L 7.9375 58.714844 Z M 7.9375 56.066406 "/>
<path style=" stroke:none;fill-rule:nonzero;fill:url(#radial2);" d="M 7.9375 56.066406 L 2.644531 56.066406 L 2.644531 53.421875 L 7.9375 53.421875 Z M 7.9375 56.066406 "/>
<path style=" stroke:none;fill-rule:nonzero;fill:url(#radial3);" d="M 55.566406 56.066406 L 60.859375 56.066406 L 60.859375 58.714844 L 55.566406 58.714844 Z M 55.566406 56.066406 "/>
<path style=" stroke:none;fill-rule:nonzero;fill:rgb(38.039216%,38.039216%,38.039216%);fill-opacity:1;" d="M 14.554688 8.4375 L 57.550781 8.4375 C 59.015625 8.4375 60.199219 9.621094 60.199219 11.085938 L 60.199219 21.007812 C 60.199219 22.46875 59.015625 23.652344 57.550781 23.652344 L 14.554688 23.652344 C 13.09375 23.652344 11.90625 22.46875 11.90625 21.007812 L 11.90625 11.085938 C 11.90625 9.621094 13.09375 8.4375 14.554688 8.4375 Z M 14.554688 8.4375 "/>
<path style=" stroke:none;fill-rule:nonzero;fill:url(#linear1);" d="M 14.554688 8.4375 L 57.550781 8.4375 C 59.015625 8.4375 60.199219 9.621094 60.199219 11.085938 L 60.199219 21.007812 C 60.199219 22.46875 59.015625 23.652344 57.550781 23.652344 L 14.554688 23.652344 C 13.09375 23.652344 11.90625 22.46875 11.90625 21.007812 L 11.90625 11.085938 C 11.90625 9.621094 13.09375 8.4375 14.554688 8.4375 Z M 14.554688 8.4375 "/>
<path style=" stroke:none;fill-rule:nonzero;fill:rgb(100%,100%,100%);fill-opacity:0.392157;" d="M 14.554688 8.613281 C 13.085938 8.613281 11.90625 9.792969 11.90625 11.261719 L 11.90625 11.589844 C 11.90625 10.125 13.085938 8.945312 14.554688 8.945312 L 57.550781 8.945312 C 59.019531 8.945312 60.199219 10.125 60.199219 11.589844 L 60.199219 11.261719 C 60.199219 9.792969 59.019531 8.613281 57.550781 8.613281 Z M 14.554688 8.613281 "/>
<path style=" stroke:none;fill-rule:nonzero;fill:rgb(12.941177%,12.941177%,12.941177%);fill-opacity:1;" d="M 14.554688 8.25 C 12.988281 8.25 11.71875 9.519531 11.71875 11.085938 L 11.71875 21.007812 C 11.71875 22.574219 12.988281 23.839844 14.554688 23.839844 L 57.550781 23.839844 C 59.117188 23.839844 60.386719 22.574219 60.386719 21.007812 L 60.386719 11.085938 C 60.386719 9.519531 59.117188 8.25 57.550781 8.25 Z M 14.554688 8.625 L 57.550781 8.625 C 58.917969 8.625 60.011719 9.71875 60.011719 11.085938 L 60.011719 21.007812 C 60.011719 22.371094 58.917969 23.464844 57.550781 23.464844 L 14.554688 23.464844 C 13.1875 23.464844 12.09375 22.371094 12.09375 21.007812 L 12.09375 11.085938 C 12.09375 9.71875 13.1875 8.625 14.554688 8.625 Z M 14.554688 8.625 "/>
<path style=" stroke:none;fill-rule:nonzero;fill:rgb(45.882353%,45.882353%,45.882353%);fill-opacity:1;" d="M 5.292969 13.730469 C 3.828125 13.730469 2.644531 14.910156 2.644531 16.375 L 2.644531 53.421875 C 2.644531 54.886719 3.828125 56.066406 5.292969 56.066406 L 58.214844 56.066406 C 59.679688 56.066406 60.859375 54.886719 60.859375 53.421875 L 60.859375 20.34375 L 25.136719 20.34375 C 23.671875 20.34375 22.492188 19.164062 22.492188 17.699219 L 22.492188 13.730469 Z M 5.292969 13.730469 "/>
<path style=" stroke:none;fill-rule:nonzero;fill:url(#linear2);" d="M 5.292969 13.730469 C 3.828125 13.730469 2.644531 14.910156 2.644531 16.375 L 2.644531 53.421875 C 2.644531 54.886719 3.828125 56.066406 5.292969 56.066406 L 58.214844 56.066406 C 59.679688 56.066406 60.859375 54.886719 60.859375 53.421875 L 60.859375 20.34375 L 25.136719 20.34375 C 23.671875 20.34375 22.492188 19.164062 22.492188 17.699219 L 22.492188 13.730469 Z M 5.292969 13.730469 "/>
<path style=" stroke:none;fill-rule:nonzero;fill:rgb(0%,0%,0%);fill-opacity:0.196078;" d="M 5.292969 56.066406 C 3.828125 56.066406 2.644531 54.886719 2.644531 53.421875 L 2.644531 53.089844 C 2.644531 54.558594 3.828125 55.738281 5.292969 55.738281 L 58.214844 55.738281 C 59.679688 55.738281 60.859375 54.558594 60.859375 53.089844 L 60.859375 53.421875 C 60.859375 54.886719 59.679688 56.066406 58.214844 56.066406 Z M 5.292969 56.066406 "/>
<path style=" stroke:none;fill-rule:nonzero;fill:rgb(100%,100%,100%);fill-opacity:0.392157;" d="M 5.292969 13.90625 C 3.828125 13.90625 2.644531 15.085938 2.644531 16.550781 L 2.644531 16.882812 C 2.644531 15.417969 3.828125 14.238281 5.292969 14.238281 L 22.492188 14.238281 L 22.492188 13.90625 Z M 5.292969 13.90625 "/>
<path style=" stroke:none;fill-rule:nonzero;fill:rgb(100%,100%,100%);fill-opacity:0.392157;" d="M 24.972656 20.6875 C 23.507812 20.6875 22.328125 19.507812 22.328125 18.039062 L 22.328125 17.710938 C 22.328125 19.175781 23.507812 20.359375 24.972656 20.355469 L 60.859375 20.355469 L 60.859375 20.6875 Z M 24.972656 20.6875 "/>
<path style=" stroke:none;fill-rule:nonzero;fill:rgb(12.941177%,12.941177%,12.941177%);fill-opacity:1;" d="M 5.292969 13.542969 C 3.726562 13.542969 2.457031 14.808594 2.457031 16.375 L 2.457031 53.421875 C 2.457031 54.988281 3.726562 56.253906 5.292969 56.253906 L 58.214844 56.253906 C 59.78125 56.253906 61.046875 54.988281 61.046875 53.421875 L 61.046875 19.96875 L 25.136719 19.96875 C 23.773438 19.96875 22.679688 18.878906 22.679688 17.511719 L 22.679688 13.542969 Z M 5.292969 13.917969 L 22.304688 13.917969 L 22.304688 17.511719 C 22.304688 19.078125 23.570312 20.34375 25.136719 20.34375 L 60.671875 20.34375 L 60.671875 53.421875 C 60.671875 54.785156 59.578125 55.878906 58.214844 55.878906 L 5.292969 55.878906 C 3.925781 55.878906 2.832031 54.785156 2.832031 53.421875 L 2.832031 16.375 C 2.832031 15.011719 3.925781 13.917969 5.292969 13.917969 Z M 5.292969 13.917969 "/>
<path style=" stroke:none;fill-rule:nonzero;fill:rgb(25.882354%,25.882354%,25.882354%);fill-opacity:1;" d="M 31.753906 25.617188 C 29.1875 25.617188 27.121094 27.679688 27.121094 30.246094 C 27.121094 32.8125 29.1875 34.878906 31.753906 34.878906 C 34.320312 34.878906 36.382812 32.8125 36.382812 30.246094 C 36.382812 27.679688 34.320312 25.617188 31.753906 25.617188 Z M 27.96875 35.566406 C 25.492188 36.5625 23.816406 38.542969 23.816406 40.832031 L 23.816406 45.460938 C 23.816406 46.195312 24.40625 46.785156 25.136719 46.785156 L 38.367188 46.785156 C 39.101562 46.785156 39.691406 46.195312 39.691406 45.460938 L 39.691406 40.832031 C 39.691406 38.542969 38.011719 36.5625 35.539062 35.566406 C 34.703125 36.75 33.320312 37.523438 31.753906 37.523438 C 30.183594 37.523438 28.804688 36.75 27.96875 35.566406 Z M 27.96875 35.566406 "/>
<path style=" stroke:none;fill-rule:nonzero;fill:rgb(100%,100%,100%);fill-opacity:0.392157;" d="M 27.128906 30.519531 C 27.125 30.597656 27.121094 30.679688 27.121094 30.761719 C 27.121094 33.328125 29.1875 35.390625 31.753906 35.390625 C 34.320312 35.390625 36.382812 33.328125 36.382812 30.761719 C 36.382812 30.679688 36.382812 30.597656 36.378906 30.519531 C 36.253906 32.972656 34.238281 34.90625 31.753906 34.90625 C 29.269531 34.90625 27.253906 32.972656 27.128906 30.519531 Z M 23.816406 45.492188 L 23.816406 45.976562 C 23.816406 46.710938 24.40625 47.300781 25.136719 47.300781 L 38.367188 47.300781 C 39.101562 47.300781 39.691406 46.710938 39.691406 45.976562 L 39.691406 45.492188 C 39.691406 46.226562 39.101562 46.816406 38.367188 46.816406 L 25.136719 46.816406 C 24.40625 46.816406 23.816406 46.226562 23.816406 45.492188 Z M 23.816406 45.492188 "/>
<path style=" stroke:none;fill-rule:nonzero;fill:rgb(0%,0%,0%);fill-opacity:0.235294;" d="M 31.753906 25.617188 C 29.1875 25.617188 27.121094 27.679688 27.121094 30.246094 C 27.121094 30.332031 27.125 30.417969 27.128906 30.503906 C 27.261719 28.0625 29.273438 26.132812 31.753906 26.132812 C 34.230469 26.132812 36.242188 28.0625 36.375 30.503906 C 36.382812 30.417969 36.382812 30.332031 36.382812 30.246094 C 36.382812 27.679688 34.320312 25.617188 31.753906 25.617188 Z M 27.96875 35.566406 C 25.492188 36.5625 23.816406 38.542969 23.816406 40.832031 L 23.816406 41.347656 C 23.816406 39.058594 25.492188 37.082031 27.96875 36.085938 C 28.804688 37.269531 30.183594 38.042969 31.753906 38.042969 C 33.320312 38.042969 34.703125 37.269531 35.539062 36.085938 C 38.011719 37.082031 39.691406 39.058594 39.691406 41.347656 L 39.691406 40.832031 C 39.691406 38.542969 38.011719 36.5625 35.539062 35.566406 C 34.703125 36.75 33.320312 37.523438 31.753906 37.523438 C 30.183594 37.523438 28.804688 36.75 27.96875 35.566406 Z M 27.96875 35.566406 "/>
<path style=" stroke:none;fill-rule:nonzero;fill:rgb(12.941177%,12.941177%,12.941177%);fill-opacity:1;" d="M 31.753906 25.429688 C 29.085938 25.429688 26.933594 27.582031 26.933594 30.246094 C 26.933594 32.914062 29.085938 35.066406 31.753906 35.066406 C 34.417969 35.066406 36.570312 32.914062 36.570312 30.246094 C 36.570312 27.582031 34.417969 25.429688 31.753906 25.429688 Z M 31.753906 25.804688 C 34.21875 25.804688 36.195312 27.78125 36.195312 30.246094 C 36.195312 32.710938 34.21875 34.691406 31.753906 34.691406 C 29.289062 34.691406 27.308594 32.710938 27.308594 30.246094 C 27.308594 27.78125 29.289062 25.804688 31.753906 25.804688 Z M 28.035156 35.335938 L 27.898438 35.390625 C 25.371094 36.410156 23.628906 38.449219 23.628906 40.832031 L 23.628906 45.460938 C 23.628906 46.296875 24.304688 46.972656 25.136719 46.972656 L 38.367188 46.972656 C 39.203125 46.972656 39.878906 46.296875 39.878906 45.460938 L 39.878906 40.832031 C 39.878906 38.449219 38.136719 36.410156 35.609375 35.390625 L 35.472656 35.335938 L 35.386719 35.457031 C 34.582031 36.59375 33.257812 37.335938 31.753906 37.335938 C 30.246094 37.335938 28.921875 36.59375 28.121094 35.457031 Z M 35.59375 35.796875 C 37.941406 36.789062 39.503906 38.671875 39.503906 40.832031 L 39.503906 45.460938 C 39.503906 46.09375 39 46.597656 38.367188 46.597656 L 25.136719 46.597656 C 24.503906 46.597656 24.003906 46.09375 24.003906 45.460938 L 24.003906 40.832031 C 24.003906 38.671875 25.5625 36.789062 27.914062 35.796875 C 28.792969 36.960938 30.179688 37.710938 31.753906 37.710938 C 33.324219 37.710938 34.714844 36.960938 35.59375 35.796875 Z M 35.59375 35.796875 "/>
</g>
</svg>

<svg xmlns="http://www.w3.org/2000/svg" width="64pt" height="64pt" viewBox="0 0 64 64"><defs><linearGradient id="a" gradientUnits="userSpaceOnUse" x1="254" y1="233.5" x2="254" y2="254.667" gradientTransform="translate(0 26.878) scale(.12501)"><stop offset="0" stop-opacity=".275"/><stop offset="1" stop-opacity="0"/></linearGradient><radialGradient id="b" gradientUnits="userSpaceOnUse" cx="450.909" cy="189.579" fx="450.909" fy="189.579" r="21.167" gradientTransform="matrix(0 -.15626 -.28128 0 108.23 127.19)"><stop offset="0" stop-opacity=".314"/><stop offset=".222" stop-opacity=".275"/><stop offset="1" stop-opacity="0"/></radialGradient><radialGradient id="c" gradientUnits="userSpaceOnUse" cx="450.909" cy="189.579" fx="450.909" fy="189.579" r="21.167" gradientTransform="matrix(0 .15626 .28128 0 -44.724 -15.055)"><stop offset="0" stop-opacity=".314"/><stop offset=".222" stop-opacity=".275"/><stop offset="1" stop-opacity="0"/></radialGradient><radialGradient id="d" gradientUnits="userSpaceOnUse" cx="450.909" cy="189.579" fx="450.909" fy="189.579" r="21.167" gradientTransform="matrix(0 -.15626 .28128 0 -44.724 127.19)"><stop offset="0" stop-opacity=".314"/><stop offset=".222" stop-opacity=".275"/><stop offset="1" stop-opacity="0"/></radialGradient><radialGradient id="e" gradientUnits="userSpaceOnUse" cx="450.909" cy="189.579" fx="450.909" fy="189.579" r="21.167" gradientTransform="matrix(0 .15626 -.28128 0 108.23 -15.055)"><stop offset="0" stop-opacity=".314"/><stop offset=".222" stop-opacity=".275"/><stop offset="1" stop-opacity="0"/></radialGradient><linearGradient id="f" gradientUnits="userSpaceOnUse" x1="254" y1="-147.5" x2="254" y2="-31.083" gradientTransform="translate(0 26.878) scale(.12501)"><stop offset="0" stop-color="#a4a4a4" stop-opacity="0"/><stop offset="1" stop-color="#fff" stop-opacity=".196"/></linearGradient><linearGradient id="g" gradientUnits="userSpaceOnUse" x1="254" y1="233.5" x2="254" y2="-105.167" gradientTransform="translate(0 26.878) scale(.12501)"><stop offset="0" stop-color="#585858" stop-opacity="0"/><stop offset="1" stop-color="#fafafa" stop-opacity=".196"/></linearGradient><linearGradient id="h" gradientUnits="userSpaceOnUse" x1="254" y1="-147.5" x2="254" y2="233.5" gradientTransform="translate(0 26.878) scale(.12501)"><stop offset="0" stop-color="#a4a4a4" stop-opacity="0"/><stop offset="1" stop-color="#fff" stop-opacity=".196"/></linearGradient></defs><path d="M7.938 56.066h47.628v2.649H7.937zm0 0" fill="url(#a)"/><path d="M55.566 56.066h5.293v-2.644h-5.293zm0 0" fill="url(#b)"/><path d="M7.938 56.066H2.644v2.649h5.292zm0 0" fill="url(#c)"/><path d="M7.938 56.066H2.644v-2.644h5.292zm0 0" fill="url(#d)"/><path d="M55.566 56.066h5.293v2.649h-5.293zm0 0" fill="url(#e)"/><path d="M14.555 8.438H57.55a2.646 2.646 0 0 1 2.648 2.648v9.922a2.645 2.645 0 0 1-2.648 2.644H14.555a2.647 2.647 0 0 1-2.649-2.644v-9.922a2.648 2.648 0 0 1 2.649-2.649zm0 0" fill="#424242"/><path d="M14.555 8.438H57.55a2.646 2.646 0 0 1 2.648 2.648v9.922a2.645 2.645 0 0 1-2.648 2.644H14.555a2.647 2.647 0 0 1-2.649-2.644v-9.922a2.648 2.648 0 0 1 2.649-2.649zm0 0" fill="url(#f)"/><path d="M14.555 8.438a2.64 2.64 0 0 0-2.649 2.648v.328a2.64 2.64 0 0 1 2.649-2.644H57.55a2.64 2.64 0 0 1 2.648 2.644v-.328a2.64 2.64 0 0 0-2.648-2.649zm0 0" fill="#e6e6e6" fill-opacity=".588"/><path d="M14.555 8.25a2.836 2.836 0 0 0-2.836 2.836v9.922a2.832 2.832 0 0 0 2.836 2.832H57.55a2.832 2.832 0 0 0 2.836-2.832v-9.922A2.836 2.836 0 0 0 57.55 8.25zm0 .375H57.55a2.45 2.45 0 0 1 2.46 2.46v9.923a2.45 2.45 0 0 1-2.46 2.457H14.555a2.45 2.45 0 0 1-2.461-2.457v-9.922a2.45 2.45 0 0 1 2.46-2.461zm0 0" fill="#212121"/><path d="M5.293 13.73a2.642 2.642 0 0 0-2.648 2.645v37.047a2.642 2.642 0 0 0 2.648 2.644h52.922a2.639 2.639 0 0 0 2.644-2.644V20.344H25.137a2.639 2.639 0 0 1-2.645-2.645V13.73zm0 0" fill="#616161"/><path d="M5.293 13.73a2.642 2.642 0 0 0-2.648 2.645v37.047a2.642 2.642 0 0 0 2.648 2.644h52.922a2.639 2.639 0 0 0 2.644-2.644V20.344H25.137a2.639 2.639 0 0 1-2.645-2.645V13.73zm0 0" fill="url(#g)"/><path d="M5.293 56.066a2.642 2.642 0 0 1-2.648-2.644v-.332a2.643 2.643 0 0 0 2.648 2.648h52.922a2.64 2.64 0 0 0 2.644-2.648v.332a2.639 2.639 0 0 1-2.644 2.644zm0 0" fill-opacity=".196"/><path d="M5.293 13.73a2.642 2.642 0 0 0-2.648 2.645v.332a2.642 2.642 0 0 1 2.648-2.645h17.2v-.332zm0 0M24.973 20.512a2.64 2.64 0 0 1-2.645-2.649v-.328a2.637 2.637 0 0 0 2.645 2.645h35.886v.332zm0 0" fill="#e6e6e6" fill-opacity=".937"/><path d="M5.293 13.543a2.832 2.832 0 0 0-2.836 2.832v37.047a2.832 2.832 0 0 0 2.836 2.832h52.922a2.83 2.83 0 0 0 2.832-2.832V19.969h-35.91a2.447 2.447 0 0 1-2.457-2.457v-3.969zm0 .375h17.012v3.594a2.83 2.83 0 0 0 2.832 2.832h35.535v33.078a2.449 2.449 0 0 1-2.457 2.457H5.293a2.45 2.45 0 0 1-2.461-2.457V16.375a2.45 2.45 0 0 1 2.461-2.457zm0 0" fill="#212121"/><path d="M31.754 25.617a4.62 4.62 0 0 0-4.633 4.63 4.623 4.623 0 0 0 4.633 4.632 4.62 4.62 0 0 0 4.629-4.633 4.616 4.616 0 0 0-4.63-4.629zm-3.785 9.95c-2.477.995-4.153 2.976-4.153 5.265v4.629c0 .734.59 1.324 1.32 1.324h13.231a1.32 1.32 0 0 0 1.324-1.324v-4.629c0-2.289-1.68-4.27-4.152-5.266a4.623 4.623 0 0 1-3.785 1.957c-1.57 0-2.95-.773-3.785-1.957zm0 0" fill="#424242"/><path d="M31.754 25.617a4.62 4.62 0 0 0-4.633 4.63 4.623 4.623 0 0 0 4.633 4.632 4.62 4.62 0 0 0 4.629-4.633 4.616 4.616 0 0 0-4.63-4.629zm-3.785 9.95c-2.477.995-4.153 2.976-4.153 5.265v4.629c0 .734.59 1.324 1.32 1.324h13.231a1.32 1.32 0 0 0 1.324-1.324v-4.629c0-2.289-1.68-4.27-4.152-5.266a4.623 4.623 0 0 1-3.785 1.957c-1.57 0-2.95-.773-3.785-1.957zm0 0" fill="url(#h)"/><path d="M31.754 25.43a4.812 4.812 0 0 0-4.82 4.816 4.813 4.813 0 0 0 4.82 4.82 4.812 4.812 0 0 0 4.816-4.82 4.811 4.811 0 0 0-4.816-4.816zm0 .375a4.426 4.426 0 0 1 4.441 4.441 4.43 4.43 0 0 1-4.441 4.445 4.433 4.433 0 0 1-4.445-4.445 4.43 4.43 0 0 1 4.445-4.441zm-3.719 9.53l-.137.056c-2.527 1.02-4.27 3.058-4.27 5.441v4.629a1.51 1.51 0 0 0 1.509 1.512h13.23a1.51 1.51 0 0 0 1.512-1.512v-4.629c0-2.383-1.742-4.422-4.27-5.441l-.136-.055-.086.121a4.438 4.438 0 0 1-3.633 1.879 4.427 4.427 0 0 1-3.633-1.879zm7.559.462c2.347.992 3.91 2.875 3.91 5.035v4.629a1.13 1.13 0 0 1-1.137 1.137h-13.23a1.127 1.127 0 0 1-1.133-1.137v-4.629c0-2.16 1.558-4.043 3.91-5.035a4.79 4.79 0 0 0 3.84 1.914c1.57 0 2.96-.75 3.84-1.914zm0 0" fill="#212121"/></svg>
